!!!COM:	de Orto, Marbrianus
!!!CDT:	~1460///-1529//
!!!OPR:	Missa La belle se siet
!!!ONM:	1
!!!OTL:	Kyrie
!!!AGN:	Mass; Kyrie
!!!SCT:	Ort1003a
!!!SCA:	Ort1003a
!!!voices-OPR:	4
!!!voices:	4
**kern	**text	**kern	**text	**kern	**text	**kern	**text
*staff4	*staff4	*staff3	*staff3	*staff2	*staff2	*staff1	*staff1
*Ivox	*	*Ivox	*	*Ivox	*	*Ivox	*
*I"Bassus	*	*I"Tenor	*	*I"Altus	*	*I"Superius	*
*I'B	*	*I'T	*	*I'A	*	*I'S	*
*>[A,B,C]	*>[A,B,C]	*>[A,B,C]	*>[A,B,C]	*>[A,B,C]	*>[A,B,C]	*>[A,B,C]	*>[A,B,C]
*>A	*>A	*>A	*>A	*>A	*>A	*>A	*>A
*clefF4	*	*clefGv2	*	*clefGv2	*	*clefG2	*
*k[b-]	*	*k[b-]	*	*k[b-]	*	*k[b-]	*
*M3/1	*	*M3/1	*	*M3/1	*	*M3/1	*
*met(O)	*	*met(O)	*	*met(O)	*	*met(O)	*
!!section: Kyrie I
!!!OMD: Kyrie I
=1-	=1-	=1-	=1-	=1-	=1-	=1-	=1-
0.r	.	0.r	.	1F	Ky-	0f	Ky-
.	.	.	.	2.F/	-ri-	.	.
.	.	.	.	4G/	.	.	.
.	.	.	.	2A/	.	1f	-ri-
.	.	.	.	[2B-\	.	.	.
=2	=2	=2	=2	=2	=2	=2	=2
0.r	.	0.r	.	2B-\]	.	2.g/	.
.	.	.	.	2c\	.	.	.
.	.	.	.	.	.	4a/	.
.	.	.	.	2.d\	.	2b-\	.
.	.	.	.	.	.	1a	.
.	.	.	.	4c\	.	.	.
.	.	.	.	1B-	.	.	.
.	.	.	.	.	.	2g/	.
=3	=3	=3	=3	=3	=3	=3	=3
0.r	.	2.F/	Ky-	1A	-e	1a	-e
.	.	4G/	.	.	.	.	.
.	.	4A/	.	0e	e-	2r	.
.	.	4B-\	.	.	.	.	.
.	.	2.c\	.	.	.	2g/	e-
.	.	.	.	.	.	2a/	.
.	.	4B-\	.	.	.	.	.
.	.	2G/	.	.	.	2b-\	.
=4	=4	=4	=4	=4	=4	=4	=4
0.r	.	1A	.	1.e	-lei-	0cc	-lei-
.	.	2G/	.	.	.	.	.
.	.	2F/	.	2f\	.	.	.
.	.	1G	.	1d	-son,	1b-	.
=5	=5	=5	=5	=5	=5	=5	=5
1r	.	1G	-ri-	2r	.	1g	.
.	.	.	.	2.d\	Ky-	.	.
0D	Ky-	0d	-e	.	.	0a	-i-
.	.	.	.	4e\	.	.	.
.	.	.	.	2.f\	.	.	.
.	.	.	.	4e\	.	.	.
.	.	.	.	4d\	.	.	.
.	.	.	.	4c\	.	.	.
=6	=6	=6	=6	=6	=6	=6	=6
1E-	.	1G	.	2.B-\	.	1g	-son,
.	.	.	.	4c\	.	.	.
2D\	.	2F/	.	2d\	.	2r	.
2E-i\	.	2G/	.	2B-\	.	2.g/	e-
1C	.	1E	e-	1c	-ri-	.	.
.	.	.	.	.	.	4f/	.
.	.	.	.	.	.	4g/	.
.	.	.	.	.	.	4a/	.
=7	=7	=7	=7	=7	=7	=7	=7
2BB-/	.	2F/	-lei-	1d	-e	1.b-	-lei-
2GG/	-ri-	2G/	.	.	.	.	.
1GG	-e	2D/	.	1g	.	.	.
.	.	1d	.	.	.	4a/	.
.	.	.	.	.	.	4b-\	.
1AA	e-	.	.	1e	e-	4cc\	.
.	.	.	.	.	.	4b-\	.
.	.	2c\	.	.	.	4a/	.
.	.	.	.	.	.	4g/	.
=8	=8	=8	=8	=8	=8	=8	=8
2BB-/	-lei-	1d	.	2d\	-lei-	1f	.
2D\	.	.	.	2B-\	.	.	.
2C/	.	2e\	.	2c\	.	2g/	.
1F	.	2c\	.	2F/	.	1a	.
.	.	1d	.	1f	.	.	.
2BB-/	.	.	.	.	.	2b-\	.
=9	=9	=9	=9	=9	=9	=9	=9
2C/	.	2c\	.	2e\	.	2g/	.
2FF/	.	2A/	.	2f\	.	2.a/	.
2AA/	.	2c\	.	2e\	.	.	.
.	.	.	.	.	.	4f/	.
2BB-/	.	2B-\	.	2d\	.	1f	.
1C	.	1G	.	1c	.	.	.
.	.	.	.	.	.	2e/	.
=10	=10	=10	=10	=10	=10	=10	=10
1FF	.	1F	-son,	1A	.	0f	-son,
2BB-/	.	2r	.	2B-\	.	.	.
2AA/	.	1F	Ky-	2c\	.	.	.
1BB-	-son,	.	.	1d	.	1r	.
.	.	2G/	.	.	.	.	.
=11	=11	=11	=11	=11	=11	=11	=11
2r	.	1A	-ri-	2c\	.	1.f	Ky-
2D\	Ky-	.	.	2A/	.	.	.
2BB-/	.	1B-	-e,	1d	.	.	.
2GG/	.	.	.	.	.	2g/	.
2D\	.	2r	.	1f	-son,	1a	-ri-
[2F\	.	2A/	e-	.	.	.	.
=12	=12	=12	=12	=12	=12	=12	=12
4F\]	.	2.c\	-lei-	2r	.	0a	-e
4E\	.	.	.	.	.	.	.
2C/	.	.	.	2e\	e-	.	.
.	.	4B-\	.	.	.	.	.
2D\	.	1A	.	1d	.	.	.
2F\	.	.	.	.	.	.	.
2.C/	.	1G	-son,	2.e\	-lei-	1cc	e-
4BB-/	.	.	.	4d\	.	.	.
=13	=13	=13	=13	=13	=13	=13	=13
4AA/	.	2r	.	4c\	.	1cc	-lei-
4GG/	.	.	.	4B-\	.	.	.
2FF/	-ri-	1A	e-	2A/	.	.	.
1GG	-e	.	.	0d	-son,	2b-\	.
.	.	1G	.	.	.	2g/	.
1D	e-	.	.	.	.	1a	.
.	.	2F/	.	.	.	.	.
=14	=14	=14	=14	=14	=14	=14	=14
2E-\	-lei-	2G/	-lei-	2r	.	2g/	.
2D\	.	2F/	.	1d	e-	2.a/	.
1E-i	.	1G	.	.	.	.	.
.	.	.	.	.	.	4g/	.
.	.	.	.	2c\	-lei-	1g	.
1D	-son,	1A	.	1d	.	.	.
.	.	.	.	.	.	2f#i/	.
=15	=15	=15	=15	=15	=15	=15	=15
2r	.	1G	.	1B-	-son,	0g	.
1E-i	Ky-	.	.	.	.	.	.
.	.	1.B-	.	1r	.	.	.
4D\	.	.	.	.	.	.	.
4C/	.	.	.	.	.	.	.
1BB-	.	.	.	[1f	Ky-	[1b-	.
.	.	4A/	.	.	.	.	.
.	.	4G/	.	.	.	.	.
=16	=16	=16	=16	=16	=16	=16	=16
1BB-	-ri-	1F	-son,	1f]	.	1b-]	.
[0D	-e,	2r	.	0d	-ri-	0f	.
.	.	2F/	Ky-	.	.	.	.
.	.	2A/	.	.	.	.	.
.	.	2B-\	.	.	.	.	.
=17	=17	=17	=17	=17	=17	=17	=17
1D]	.	2A/	.	1d	-e	1a	.
.	.	2F/	-ri-	.	.	.	.
1GG	e-	1G	-e,	1d	e-	1b-	.
2.C/	-lei-	2r	.	4c\	-lei-	1g	-son,
.	.	.	.	4B-\	.	.	.
.	.	[2c\	Ky-	4A/	.	.	.
4BB-/	.	.	.	4G/	.	.	.
=18	=18	=18	=18	=18	=18	=18	=18
2AA/	.	4c\]	.	2A/	.	2r	.
.	.	4B-\	.	.	.	.	.
2.D\	.	4A/	-ri-	2F/	.	2f/	Ky-
.	.	4G/	.	.	.	.	.
.	.	1F	-e	1f	.	2.a/	.
4E\	.	.	.	.	.	.	.
2F\	.	.	.	.	.	.	.
.	.	.	.	.	.	4b-\	.
2C/	.	2r	.	2e\	.	2g/	.
[2D\	.	2B-\	e-	2d\	-son,	2f/	.
=19	=19	=19	=19	=19	=19	=19	=19
4D\]	.	2A/	-lei-	1r	.	2a/	.
4F\	.	.	.	.	.	.	.
1E	.	4G/	.	.	.	2b-\	-ri-
.	.	4A/	.	.	.	.	.
.	.	4B-\	.	1r	.	2g/	-e
.	.	4c\	.	.	.	.	.
2D\	.	2d\	.	.	.	2f/	e-
4C/	.	2e\	.	2G/	e-	2.cc\	-lei-
4BB-/	.	.	.	.	.	.	.
4AA/	.	[2c\	.	[2A/	-lei-	.	.
4GG/	.	.	.	.	.	4b-\	.
=20	=20	=20	=20	=20	=20	=20	=20
2FF/	.	2c\]	.	2A/]	.	2a/	.
2GG/	.	2B-\	.	2d\	.	2.g/	.
2C/	.	2c\	.	4e\	.	.	.
.	.	.	.	2c\	.	4f/	.
2D\	.	2F/	.	.	.	1f	.
.	.	.	.	4B-\	.	.	.
1C	.	1G	.	[1cl	-son.-	.	.
.	.	.	.	.	.	2e/	.
=21	=21	=21	=21	=21	=21	=21	=21
0.FFl	-son.-	0.Fl	-son.-	0.c]	.	0.fl	-son.-
!!LO:LB:i:g=z
=22||	=22||	=22||	=22||	=22||	=22||	=22||	=22||
*>B	*>B	*>B	*>B	*>B	*>B	*>B	*>B
*clefF4	*	*clefGv2	*	*clefGv2	*	*clefG2	*
*k[b-]	*	*k[b-]	*	*k[b-]	*	*k[b-]	*
*M2/1	*	*M2/1	*	*M2/1	*	*M2/1	*
*met(C|)	*	*met(C|)	*	*met(C|)	*	*met(C|)	*
!!section: Christe
!!!OMD: Christe
0r	.	0r	.	0c	-Chri-	0r	.
=23	=23	=23	=23	=23	=23	=23	=23
1r	.	0r	.	1d	.	0r	.
1C	-Chri-	.	.	1c	.	.	.
=24	=24	=24	=24	=24	=24	=24	=24
1D	.	1r	.	1B-	.	0r	.
1C	.	1c	-Chri-	2A/	.	.	.
.	.	.	.	[2A/	.	.	.
=25	=25	=25	=25	=25	=25	=25	=25
1BB-	-ste,	1d	.	2A/]	.	0r	.
.	.	.	.	2G/	.	.	.
1AA	.	1c	.	1A	-ste	.	.
=26	=26	=26	=26	=26	=26	=26	=26
0r	.	0B-	-ste,	1r	.	0g	-Chri-
.	.	.	.	1d	e-	.	.
=27	=27	=27	=27	=27	=27	=27	=27
1r	.	1A	.	0e	-lei-	1a	.
1C	Chri-	1c	.	.	.	1g	.
=28	=28	=28	=28	=28	=28	=28	=28
2D\	.	1r	.	2A/	.	0f	-ste,
2.BB-/	.	.	.	2.B-\	.	.	.
.	.	[1d	e-	.	.	.	.
4C/	.	.	.	4A/	.	.	.
2D\	.	.	.	4F/	.	.	.
.	.	.	.	4G/	.	.	.
=29	=29	=29	=29	=29	=29	=29	=29
1AA	-ste	1d]	.	1A	-son,	0e	.
[1A	e-	1c	-lei-	1r	.	.	.
=30	=30	=30	=30	=30	=30	=30	=30
2A\]	.	0B-	.	0r	.	0r	.
4G\	.	.	.	.	.	.	.
4F\	.	.	.	.	.	.	.
1G	.	.	.	.	.	.	.
=31	=31	=31	=31	=31	=31	=31	=31
1.A	-lei-	0A	-son,	4A/	Chri-	0cc	e-
.	.	.	.	4B-\	.	.	.
.	.	.	.	4c\	.	.	.
.	.	.	.	4d\	.	.	.
.	.	.	.	2e\	.	.	.
2F\	.	.	.	[2f\	.	.	.
=32	=32	=32	=32	=32	=32	=32	=32
1B-	.	0r	.	2f\]	.	1dd	-lei-
.	.	.	.	2d\	.	.	.
1A	.	.	.	2e\	.	1cc	.
.	.	.	.	2f\	.	.	.
=33	=33	=33	=33	=33	=33	=33	=33
0G	.	0r	.	2g\	.	0b-	.
.	.	.	.	1f	.	.	.
.	.	.	.	2e\	.	.	.
=34	=34	=34	=34	=34	=34	=34	=34
0F	-son,	0c	e-	0f	-ste	0a	-son,
=35	=35	=35	=35	=35	=35	=35	=35
1BB-	e-	1d	-lei-	1f	e-	1b-	e-
1FF	-lei-	1c	.	1F	.	1a	.
=36	=36	=36	=36	=36	=36	=36	=36
0GG	.	0B-	.	1D	-lei-	2g/	-lei-
.	.	.	.	.	.	4f/	.
.	.	.	.	.	.	4e/	.
.	.	.	.	1G	.	1d	.
=37	=37	=37	=37	=37	=37	=37	=37
1AA	-son,	0A	-son,	2E/	.	0c	-son,
.	.	.	.	2F/	.	.	.
2r	.	.	.	2E/	.	.	.
2C/	e-	.	.	[2A/	.	.	.
=38	=38	=38	=38	=38	=38	=38	=38
2D\	-lei-	0r	.	2A/]	.	2r	.
2C/	.	.	.	4G/	.	2c/	Chri-
.	.	.	.	4F/	.	.	.
1BB-	.	.	.	1G	.	1d	.
=39	=39	=39	=39	=39	=39	=39	=39
1AA	-son,	1c	Chri-	1A	-son,	1e	.
1r	.	2d\	.	2r	.	2f/	.
.	.	2c\	.	2A/	Chri-	2e/	.
=40	=40	=40	=40	=40	=40	=40	=40
1r	.	1B-	-ste,	2d\	.	2f/	.
.	.	.	.	1d	.	2d/	.
1AA	Chri-	1A	.	.	.	1e	.
.	.	.	.	2c\	.	.	.
=41	=41	=41	=41	=41	=41	=41	=41
2BB-/	.	0r	.	2d\	.	2d/	.
1D	.	.	.	2B-\	.	2.f/	.
.	.	.	.	2A/	.	.	.
.	.	.	.	.	.	4e/	.
2C/	.	.	.	2c\	.	[2g/	.
=42	=42	=42	=42	=42	=42	=42	=42
1BB-	.	1G	Chri-	1d	-ste	4g/]	.
.	.	.	.	.	.	4f/	.
.	.	.	.	.	.	4e/	.
.	.	.	.	.	.	4d/	.
2AA/	.	2A/	.	2r	.	2c/	-ste
2BB-/	.	2G/	.	2d\	e-	2d/	.
=43	=43	=43	=43	=43	=43	=43	=43
2AA/	.	1F	-ste	2c\	-lei-	1r	.
2FF/	.	.	.	1d	.	.	.
1GG	.	1E	.	.	.	1g	e-
.	.	.	.	4c\	.	.	.
.	.	.	.	4B-\	.	.	.
=44	=44	=44	=44	=44	=44	=44	=44
1FF	-ste	0r	.	2A/	.	2.a/	-lei-
.	.	.	.	2c\	.	.	.
.	.	.	.	.	.	4g/	.
1BB-	e-	.	.	1d	.	1f	.
=45	=45	=45	=45	=45	=45	=45	=45
2C/	-lei-	0G	e-	1c	.	2e/	.
4BB-/	.	.	.	.	.	2c/	.
4AA/	.	.	.	.	.	.	.
1GG	.	.	.	1B-	-son,	1d	-son,
=46	=46	=46	=46	=46	=46	=46	=46
1FF	.	1A	-lei-	1A	.	0r	.
2C/	.	1G	.	2c\	e-	.	.
[2BB-/	.	.	.	[2d\	-lei-	.	.
=47	=47	=47	=47	=47	=47	=47	=47
2BB-/]	.	0F	.	2d\]	.	0r	.
2AA/	.	.	.	2c\	.	.	.
1D	.	.	.	1B-	.	.	.
=48	=48	=48	=48	=48	=48	=48	=48
1AA	-son,	0E	-son,	1A	-son,	1r	.
1r	.	.	.	1c	e-	4e/	Chri-
.	.	.	.	.	.	4f/	.
.	.	.	.	.	.	4g/	.
.	.	.	.	.	.	4a/	.
=49	=49	=49	=49	=49	=49	=49	=49
0r	.	0r	.	1d	-lei-	2b-\	.
.	.	.	.	.	.	1a	.
.	.	.	.	1c	.	.	.
.	.	.	.	.	.	2cc\	.
=50	=50	=50	=50	=50	=50	=50	=50
0r	.	2r	.	2d\	.	2b-\	.
.	.	2c\	Chri-	2c\	.	1a	.
.	.	1d	.	1B-	.	.	.
.	.	.	.	.	.	2g/	.
=51	=51	=51	=51	=51	=51	=51	=51
1AA	son,	1c	.	1A	-son,	2.a/	.
.	.	.	.	.	.	4g/	.
2r	.	2d\	.	2B-\	.	2f/	-ste
2AA/	Chri-	2c\	.	2c\	.	2e/	.
=52	=52	=52	=52	=52	=52	=52	=52
1GG	.	1B-	-ste	1d	.	2r	.
.	.	.	.	.	.	2g/	e-
1FF	.	1A	.	2r	.	2.a/	-lei-
.	.	.	.	2c\	Chri-	.	.
.	.	.	.	.	.	4g/	.
=53	=53	=53	=53	=53	=53	=53	=53
2BB-/	.	2r	.	2d\	.	2f/	.
1C	.	2G/	e-	2c\	.	2e/	-son,
.	.	2.A/	-lei-	1c	-ste	1r	.
2AA/	.	.	.	.	.	.	.
.	.	4G/	.	.	.	.	.
=54	=54	=54	=54	=54	=54	=54	=54
1AA	-ste	2F/	.	2r	.	1cc	Chri-
.	.	2E/	-son,	2A/	e-	.	.
2BB-/	.	2r	.	2G/	-lei-	2dd\	.
2AA/	.	2c\	Chri-	2A/	.	2cc\	.
=55	=55	=55	=55	=55	=55	=55	=55
2BB-/	.	1d	-ste	2F/	.	1b-	-ste
2GG/	e-	.	.	2G/	.	.	.
2D\	-lei-	2r	.	2F/	.	1a	.
[2F\	.	2c\	e-	2A/	-son,	.	.
=56	=56	=56	=56	=56	=56	=56	=56
4F\]	.	2d\	-lei-	0r	.	2r	.
4G\	.	.	.	.	.	.	.
1A	.	2c\	.	.	.	2e/	e-
.	.	1B-	.	.	.	4g/	-lei-
.	.	.	.	.	.	4f/	.
2G\	.	.	.	.	.	4e/	.
.	.	.	.	.	.	4d/	.
=57	=57	=57	=57	=57	=57	=57	=57
2A\	.	1A	-son,	1r	.	2c/	.
2F\	.	.	.	.	.	1f	.
1G	.	1r	.	2r	.	.	.
.	.	.	.	2G/	e-	2e/	.
=58	=58	=58	=58	=58	=58	=58	=58
2F\	.	0c	e-	2A/	-lei-	2f/	.
2C/	.	.	.	2G/	.	2e/	.
2F\	.	.	.	2F/	.	2a/	.
2E\	.	.	.	2G/	.	2g/	.
=59	=59	=59	=59	=59	=59	=59	=59
1D	.	1d	-lei-	0A	.	1f	.
1AA	-son,	1c	.	.	.	2e/	-son,
.	.	.	.	.	.	[2a/	.
=60	=60	=60	=60	=60	=60	=60	=60
1r	.	0B-	.	[0d	.	2a/]	.
.	.	.	.	.	.	2g/	.
1GG	e-	.	.	.	.	2r	.
.	.	.	.	.	.	2g/	e-
=61	=61	=61	=61	=61	=61	=61	=61
0D	-lei-	0A	-son,	0d]	.	2a/	-lei-
.	.	.	.	.	.	2g/	.
.	.	.	.	.	.	1f	.
=62	=62	=62	=62	=62	=62	=62	=62
1C	.	0c	e-	1G	-son,	0e	-son,
1AA	.	.	.	2A/	e-	.	.
.	.	.	.	[2A/	-lei-	.	.
=63	=63	=63	=63	=63	=63	=63	=63
1BB-	.	1d	-lei-	2A/]	.	1r	.
.	.	.	.	2d\	.	.	.
1AA	-son,	1c	.	1e	.	[1a	e-
=64	=64	=64	=64	=64	=64	=64	=64
0r	.	0B-	.	[0d	.	1a]	.
.	.	.	.	.	.	1g	-lei-
=65	=65	=65	=65	=65	=65	=65	=65
0D	e-	[0A	-son,	0d]	.	0f	.
=66	=66	=66	=66	=66	=66	=66	=66
0AA	-lei-	0A]	.	1.c	.	[0el	-son.
.	.	.	.	4B-\	.	.	.
.	.	.	.	4A/	.	.	.
=67	=67	=67	=67	=67	=67	=67	=67
[0Cl	-son.	1r	.	[0Gl	-son.	0e_	.
.	.	[1c	lei-	.	.	.	.
=68	=68	=68	=68	=68	=68	=68	=68
0C_	.	0c]	.	0G_	.	0e_	.
=69	=69	=69	=69	=69	=69	=69	=69
0C]	.	0cl	-son.	0G]	.	0e]	.
!!LO:LB:i:g=z
=70||	=70||	=70||	=70||	=70||	=70||	=70||	=70||
*>C	*>C	*>C	*>C	*>C	*>C	*>C	*>C
*clefF4	*	*clefGv2	*	*clefGv2	*	*clefG2	*
*k[b-]	*	*k[b-]	*	*k[b-]	*	*k[b-]	*
*M3/1	*	*M3/1	*	*M3/1	*	*M3/1	*
*met(O|)	*	*met(O|)	*	*met(O|)	*	*met(O|)	*
!!section: Kyrie II
!!!OMD: Kyrie II
1.F	Ky-	0F	Ky-	0.r	.	0.r	.
2E\	.	.	.	.	.	.	.
1D	.	1F	-ri-	.	.	.	.
=71	=71	=71	=71	=71	=71	=71	=71
1C	.	0G	-e	0.r	.	0.r	.
0BB-	-ri-	.	.	.	.	.	.
.	.	1G	e-	.	.	.	.
=72	=72	=72	=72	=72	=72	=72	=72
1AA	-e	[0.A	-lei-	1.c	Ky-	0e	Ky-
1C	.	.	.	.	.	.	.
.	.	.	.	2A/	-ri-	.	.
1FF	e-	.	.	2A/	-e	1f	.
.	.	.	.	[2c\	lei-	.	.
=73	=73	=73	=73	=73	=73	=73	=73
1C	-lei-	0A]	.	4c\]	.	1e	-ri-
.	.	.	.	4B-\	.	.	.
.	.	.	.	4A/	.	.	.
.	.	.	.	4G/	.	.	.
0D	.	.	.	1F	.	0d	-e
.	.	1A	.	1F	.	.	.
=74	=74	=74	=74	=74	=74	=74	=74
1AA	.	0c	-son,	1E	-son,	1e	e-
1F	.	.	.	2r	.	1.a	-lei-
.	.	.	.	2c\	e-	.	.
1D	.	1B-	e-	2d\	.	.	.
.	.	.	.	[2d\	-lei-	2g/	.
=75	=75	=75	=75	=75	=75	=75	=75
1E	.	1G	-lei-	2d\]	.	0g	.
.	.	.	.	2c\	.	.	.
0D	.	0A	.	0d	.	.	.
.	.	.	.	.	.	1f#i	.
=76	=76	=76	=76	=76	=76	=76	=76
2.GG/	-son,	[0.G	-son,	2.B-\	-son,	1.g	-son,
4AA/	.	.	.	4c\	.	.	.
2BB-/	.	.	.	2d\	.	.	.
2C/	Ky-	.	.	2.G/	Ky-	4f/	.
.	.	.	.	.	.	4e/	.
[1BB-	.	.	.	.	.	[1d	.
.	.	.	.	4A/	.	.	.
.	.	.	.	[2B-\	.	.	.
=77	=77	=77	=77	=77	=77	=77	=77
2BB-/]	.	0.G]	.	4B-\]	.	1d]	.
.	.	.	.	4c\	.	.	.
2GG/	-ri-	.	.	2.d\	.	.	.
2GG/	-e	.	.	.	.	1.b-	Ky-
.	.	.	.	4c\	.	.	.
1G	e-	.	.	4B-\	.	.	.
.	.	.	.	4A/	.	.	.
.	.	.	.	2G/	.	.	.
4F\	.	.	.	2c\	-ri-	4a/	-ri-
4E\	.	.	.	.	.	4g/	.
=78	=78	=78	=78	=78	=78	=78	=78
2D\	.	0.B-	.	0d	-e	1f	-e,
1BB-	-lei-	.	.	.	.	.	.
.	.	.	.	.	.	2r	.
4GG/	.	.	.	.	.	1g	Ky-
4AA/	.	.	.	.	.	.	.
4BB-/	.	.	.	1d	e-	.	.
4C/	.	.	.	.	.	.	.
2D\	.	.	.	.	.	2f/	-ri-
=79	=79	=79	=79	=79	=79	=79	=79
1BB-	.	1B-	Ky-	1G	-lei-	4g/	-e
.	.	.	.	.	.	4f/	.
.	.	.	.	.	.	4e/	.
.	.	.	.	.	.	4d/	.
2AA/	.	2c\	.	2A/	.	2c/	.
1D	.	2B-\	.	2F/	.	2r	.
.	.	2A/	.	2D/	.	2f/	Ky-
2E-i\	.	2G/	.	2c\	.	2g/	.
=80	=80	=80	=80	=80	=80	=80	=80
2D\	.	1.F	.	1d	.	2a/	.
4C/	.	.	.	.	.	2b-\	-ri-
4BB-/	.	.	.	.	.	.	.
2AA/	.	.	.	2c\	.	1cc	-e-
1C	.	2G/	-ri-	1e	.	.	.
.	.	1A	-e	.	.	4cc\	-lei-
.	.	.	.	.	.	4b-\	.
[2D\	.	.	.	[2f\	.	4a/	.
.	.	.	.	.	.	4g/	.
=81	=81	=81	=81	=81	=81	=81	=81
2D\]	.	1B-	e-	2f\]	.	2f/	.
2E\	.	.	.	4e\	.	2.g/	.
.	.	.	.	4d\	.	.	.
2F\	.	2A/	-lei-	2c\	.	.	.
.	.	.	.	.	.	4f/	.
2D\	.	2F/	.	2B-\	.	1f	.
1C	.	1G	.	1c	.	.	.
.	.	.	.	.	.	2e/	.
=82	=82	=82	=82	=82	=82	=82	=82
0.FF	-son,	0.F	-son,	2A/	-son,	1f	-son,
.	.	.	.	2.c\	Ky-	.	.
.	.	.	.	.	.	1r	.
.	.	.	.	4B-\	.	.	.
.	.	.	.	4A/	.	.	.
.	.	.	.	4G/	.	.	.
.	.	.	.	2F/	.	1cc	Ky-
.	.	.	.	[2f\	.	.	.
=83	=83	=83	=83	=83	=83	=83	=83
1r	.	0F	Ky-	4f\]	.	1cc	-ri-
.	.	.	.	4e\	.	.	.
.	.	.	.	4d\	.	.	.
.	.	.	.	4c\	.	.	.
2BB-/	Ky-	.	.	2d\	.	2b-\	-e
2C/	.	.	.	1c	.	1a	.
1D	-ri-	1F	-ri-	.	.	.	.
.	.	.	.	2Bni\	-ri-	4g/	.
.	.	.	.	.	.	4f/	.
=84	=84	=84	=84	=84	=84	=84	=84
1C	-e	0G	-e	1c	-e,	1e	.
2BB-/	e-	.	.	2r	.	2d/	e-
2.C/	-lei-	.	.	2G/	e-	2.e/	-lei-
.	.	1G	e-	2c\	-lei-	.	.
4BB-/	.	.	.	.	.	4f/	.
2GG/	.	.	.	2B-\	.	2g/	.
=85	=85	=85	=85	=85	=85	=85	=85
2D\	.	[0.A	-lei-	2A/	.	2f/	.
2C/	.	.	.	2.c\	.	1e	.
1D	.	.	.	.	.	.	.
.	.	.	.	4A/	.	.	.
.	.	.	.	1d	.	2d/	.
1AA	.	.	.	.	.	1e	-son,
.	.	.	.	2c#i\	.	.	.
=86	=86	=86	=86	=86	=86	=86	=86
1.D	.	0A]	.	1d	.	2r	.
.	.	.	.	.	.	2.f/	e-
.	.	.	.	2f\	.	.	.
.	.	.	.	.	.	4e/	.
2AA/	.	.	.	1e	.	1c	.
1AA	-son,	1A	.	.	.	.	.
.	.	.	.	2c\	.	[2a/	-lei-
=87	=87	=87	=87	=87	=87	=87	=87
2r	.	0c	-son,	1c	-son,	4a/]	.
.	.	.	.	.	.	4g/	.
2.A\	e-	.	.	.	.	2.e/	.
.	.	.	.	2r	.	.	.
4G\	.	.	.	.	.	4f/	.
2.E\	-lei-	.	.	2.G/	Ky-	2.g/	.
.	.	1B-	e-	.	.	.	.
4F\	.	.	.	4A/	.	4f/	.
[2G\	.	.	.	[2B-\	.	[2d/	.
=88	=88	=88	=88	=88	=88	=88	=88
2G\]	.	1G	-lei-	4B-\]	.	2d/]	.
.	.	.	.	4c\	.	.	.
2GG/	.	.	.	0d	.	1b-	.
1D	.	0A	.	.	.	.	.
.	.	.	.	.	.	4a/	.
.	.	.	.	.	.	4g/	.
1D	-son,	.	.	.	.	2g/	.
.	.	.	.	2d\	-ri-	2f#i/	.
=89	=89	=89	=89	=89	=89	=89	=89
1r	.	[0.G	-son,	1e-i	.	1g	-son,
0GG	Ky-	.	.	0d	-e	0b-	Ky-
=90	=90	=90	=90	=90	=90	=90	=90
1.C	.	0.G]	.	1c	.	1cc	.
.	.	.	.	1r	.	2cc\	-ri-
2GG/	-ri-	.	.	.	.	1b-	-e
1GG	-e	.	.	[1d	e-	.	.
.	.	.	.	.	.	4a/	.
.	.	.	.	.	.	4g/	.
=91	=91	=91	=91	=91	=91	=91	=91
2r	.	0.B-	.	1d]	.	1f	.
2D\	e-	.	.	.	.	.	.
2E-i\	-lei-	.	.	2G/	-lei-	1r	.
2D\	.	.	.	2F/	.	.	.
2BB-/	.	.	.	2B-\	.	1r	.
2E-i\	.	.	.	2G/	.	.	.
=92	=92	=92	=92	=92	=92	=92	=92
2D\	-son,	1B-	Ky-	1d	-son,	2r	.
2G\	e-	.	.	.	.	2b-\	e-
2F\	-lei-	2c\	.	2r	.	2a/	-lei-
2G\	.	2B-\	.	2d\	e-	2g/	.
2F\	.	2A/	.	2f\	-lei-	1cc	-son,
2C/	.	2G/	.	2e\	.	.	.
=93	=93	=93	=93	=93	=93	=93	=93
2D\	.	1.F	.	2d\	.	2r	.
2AA/	.	.	.	2c\	.	2c/	e-
4BB-/	.	.	.	2B-\	.	2d/	-lei-
4D\	.	.	.	.	.	.	.
2C/	.	2G/	-ri-	1c	-son,	2e/	.
1F	-son,	1A	-e	.	.	2f/	.
.	.	.	.	[2f\	e-	[2a/	.
=94	=94	=94	=94	=94	=94	=94	=94
2BB-/	e-	1B-	e-	2f\]	.	2a/]	.
2E-\	.	.	.	2e-\	.	1g	.
2F\	-lei-	2A/	-lei-	4d\	-lei-	.	.
.	.	.	.	2c\	.	.	.
2D\	.	2F/	.	.	.	1f	.
.	.	.	.	4B-\	.	.	.
1C	.	1G	.	[1cl	-son.	.	.
.	.	.	.	.	.	2e/	.
=95	=95	=95	=95	=95	=95	=95	=95
0.FFl	-son.	0.Fl	-son.	0.c]	.	0.fl	-son.
==	==	==	==	==	==	==	==
*-	*-	*-	*-	*-	*-	*-	*-
!!!RDF**kern: l=long note in original notation
!!!RDF**kern: i=editorial accidental
!!!ENC:	Jesse Rodin 8/10/2013
!!!END:	2013/08/10/
!!!EED:	Jesse Rodin
!!!EEV:	2013/08/11/
!!!ONB:	Translated from MusicXML and edited on 2013/08/11/ by Craig Sapp
!!muse2ps: T^@{OPR}^u^@{ONM}{. }@{OTL}^C^@{COM}^i2I150v85,85,85,130c180
